svgs/light/keyboard-left.svg

<svg xmlns="http://www.w3.org/2000/svg" viewBox="0 0 640 512"><!--! Font Awesome Pro 6.3.0 by @fontawesome - https://fontawesome.com License - https://fontawesome.com/license (Commercial License) Copyright 2023 Fonticons, Inc. --><path d="M340 280h24c6.629 0 12-5.373 12-12v-24c0-6.627-5.371-12-12-12h-24c-6.627 0-12 5.373-12 12v24C328 274.6 333.4 280 340 280zM436 184h24c6.629 0 12-5.373 12-12v-24c0-6.627-5.371-12-12-12h-24c-6.627 0-12 5.373-12 12v24C424 178.6 429.4 184 436 184zM268 328h-24c-6.627 0-12 5.373-12 12v24c0 6.627 5.373 12 12 12h24c6.629 0 12-5.373 12-12v-24C280 333.4 274.6 328 268 328zM436 280h24c6.629 0 12-5.373 12-12v-24c0-6.627-5.371-12-12-12h-24c-6.627 0-12 5.373-12 12v24C424 274.6 429.4 280 436 280zM268 232h-24c-6.627 0-12 5.373-12 12v24c0 6.627 5.373 12 12 12h24c6.629 0 12-5.373 12-12v-24C280 237.4 274.6 232 268 232zM340 184h24c6.629 0 12-5.373 12-12v-24c0-6.627-5.371-12-12-12h-24c-6.627 0-12 5.373-12 12v24C328 178.6 333.4 184 340 184zM556 232h-24c-6.627 0-12 5.373-12 12v24c0 6.627 5.373 12 12 12h24c6.629 0 12-5.373 12-12v-24C568 237.4 562.6 232 556 232zM556 136h-24c-6.627 0-12 5.373-12 12v24c0 6.627 5.373 12 12 12h24c6.629 0 12-5.373 12-12v-24C568 141.4 562.6 136 556 136zM268 136h-24c-6.627 0-12 5.373-12 12v24c0 6.627 5.373 12 12 12h24c6.629 0 12-5.373 12-12v-24C280 141.4 274.6 136 268 136zM575.1 64h-352c-35.35 0-64 28.65-64 64v256c0 35.35 28.65 64 64 64h352c35.35 0 64-28.65 64-64V128C639.1 92.65 611.3 64 575.1 64zM608 384c0 17.64-14.36 32-32 32H224c-17.64 0-32-14.36-32-32V128c0-17.64 14.36-32 32-32h352c17.64 0 32 14.36 32 32V384zM556 328h-24c-6.627 0-12 5.373-12 12v24c0 6.627 5.373 12 12 12h24c6.629 0 12-5.373 12-12v-24C568 333.4 562.6 328 556 328zM464 336h-128c-8.844 0-16 7.156-16 16s7.156 16 16 16h128c8.844 0 16-7.156 16-16S472.8 336 464 336zM123.8 157.2C117.8 150.7 107.7 150.3 101.2 156.2l-96 88c-3.312 3.031-5.187 7.305-5.187 11.79c0 4.484 1.875 8.773 5.187 11.8l96 88C104.3 358.6 108.1 360 112 360c4.312 0 8.625-1.75 11.78-5.188c5.969-6.516 5.531-16.64-.9687-22.61L39.69 256l83.13-76.2C129.3 173.8 129.8 163.7 123.8 157.2z"/></svg>

<svg xmlns="http://www.w3.org/2000/svg" viewBox="0 0 640 512"><!-- Font Awesome Pro 6.0.0-alpha2 by @fontawesome - https://fontawesome.com License - https://fontawesome.com/license (Commercial License) --><path d="M340 280H364C370.629 280 376 274.627 376 268V244C376 237.373 370.629 232 364 232H340C333.373 232 328 237.373 328 244V268C328 274.627 333.373 280 340 280ZM436 184H460C466.629 184 472 178.627 472 172V148C472 141.373 466.629 136 460 136H436C429.373 136 424 141.373 424 148V172C424 178.627 429.373 184 436 184ZM268 328H244C237.373 328 232 333.373 232 340V364C232 370.627 237.373 376 244 376H268C274.629 376 280 370.627 280 364V340C280 333.373 274.629 328 268 328ZM436 280H460C466.629 280 472 274.627 472 268V244C472 237.373 466.629 232 460 232H436C429.373 232 424 237.373 424 244V268C424 274.627 429.373 280 436 280ZM268 232H244C237.373 232 232 237.373 232 244V268C232 274.627 237.373 280 244 280H268C274.629 280 280 274.627 280 268V244C280 237.373 274.629 232 268 232ZM340 184H364C370.629 184 376 178.627 376 172V148C376 141.373 370.629 136 364 136H340C333.373 136 328 141.373 328 148V172C328 178.627 333.373 184 340 184ZM556 232H532C525.373 232 520 237.373 520 244V268C520 274.627 525.373 280 532 280H556C562.629 280 568 274.627 568 268V244C568 237.373 562.629 232 556 232ZM556 136H532C525.373 136 520 141.373 520 148V172C520 178.627 525.373 184 532 184H556C562.629 184 568 178.627 568 172V148C568 141.373 562.629 136 556 136ZM268 136H244C237.373 136 232 141.373 232 148V172C232 178.627 237.373 184 244 184H268C274.629 184 280 178.627 280 172V148C280 141.373 274.629 136 268 136ZM576 64H224C188.654 64 160 92.654 160 128V384C160 419.346 188.654 448 224 448H576C611.348 448 640 419.346 640 384V128C640 92.654 611.348 64 576 64ZM608 384C608 401.645 593.645 416 576 416H224C206.355 416 192 401.645 192 384V128C192 110.355 206.355 96 224 96H576C593.645 96 608 110.355 608 128V384ZM556 328H532C525.373 328 520 333.373 520 340V364C520 370.627 525.373 376 532 376H556C562.629 376 568 370.627 568 364V340C568 333.373 562.629 328 556 328ZM464 336H336C327.156 336 320 343.156 320 352S327.156 368 336 368H464C472.844 368 480 360.844 480 352S472.844 336 464 336ZM123.781 157.188C117.812 150.672 107.656 150.266 101.188 156.203L5.188 244.203C1.875 247.234 0 251.516 0 256S1.875 264.766 5.188 267.797L101.188 355.797C104.25 358.609 108.125 360 112 360C116.312 360 120.625 358.25 123.781 354.812C129.75 348.297 129.313 338.172 122.813 332.203L39.688 256L122.812 179.797C129.312 173.828 129.75 163.703 123.781 157.188Z"/></svg>
